X:32
T:Stone Stairs. ThoH.032
Q:1/2=80
T:Stoney Steps,aka. ThoH.032
M:C|
L:1/8
B:Thompson's Compleat Collection of 120 Favourite Hornpipes.
Z:Village Music Project, Simon Wilson 2016
O:England.
K:Bb
BFdB fdbg|ecAc BAGF|GEDE CBcd|((3efg) ((3gec)(B2A2)|
BFdB fdbg|ecAc BAGF|GEDE CEB,2|ecBAB4:|
|:DB,FD B"_sic"GdB|egec BAGF|GBeG Afcb|agf=e f4|
g_ede fABF|((3GAB) ((3edc) BAGF|GEDE ((3FGA) ((3Bcd)|ecBAB4:|

